svg/u1f4f1.svg

<svg viewBox="0 0 128 128" xmlns="http://www.w3.org/2000/svg">
  <g>
    <path d="M87.4,124H40.6c-4.7,0-8.6-3.8-8.6-8.6V12.6C32,7.9,35.9,4,40.6,4h46.8c4.7,0,8.6,3.8,8.6,8.6v102.9 C96,120.2,92.1,124,87.4,124z" fill="#424242"/>
    <path d="M86.77,120.11H39.93c-2.15,0-3.89-1.74-3.89-3.89V19.65c0-2.14,1.74-3.88,3.88-3.88h48.15c2.15,0,3.89,1.74,3.89,3.89 v95.93C91.96,116.52,90.56,120.11,86.77,120.11z"/>
    <path d="M73.65,11.59h-19.2c-0.7,0-1.2-0.6-1.2-1.2s0.6-1.2,1.2-1.2h19.1c0.7,0,1.2,0.6,1.2,1.2 S74.25,11.59,73.65,11.59z" fill="#212121"/>
    <path d="M87.4,6c3.64,0,6.6,2.96,6.6,6.6v102.9c0,3.58-2.96,6.5-6.6,6.5H40.6c-3.64,0-6.6-2.96-6.6-6.6 V12.6C34,9.02,37.02,6,40.6,6H87.4 M87.4,4H40.6C35.9,4,32,7.9,32,12.6v102.8c0,4.8,3.9,8.6,8.6,8.6h46.8c4.7,0,8.6-3.8,8.6-8.5 V12.6C96,7.8,92.1,4,87.4,4L87.4,4z" fill="#757575"/>
    <g>
      <path d="M48.35,29.96h-6.36c-0.73,0-1.32-0.59-1.32-1.32v-6.36c0-0.73,0.59-1.32,1.32-1.32h6.36 c0.73,0,1.32,0.59,1.32,1.32v6.36C49.67,29.37,49.08,29.96,48.35,29.96z" fill="#EAB56E"/>
      <path d="M60.9,29.96h-6.36c-0.73,0-1.32-0.59-1.32-1.32v-6.36c0-0.73,0.59-1.32,1.32-1.32h6.36 c0.73,0,1.32,0.59,1.32,1.32v6.36C62.22,29.37,61.63,29.96,60.9,29.96z" fill="#FB8C00"/>
      <path d="M73.45,29.96H67.1c-0.73,0-1.32-0.59-1.32-1.32v-6.36c0-0.73,0.59-1.32,1.32-1.32h6.36 c0.73,0,1.32,0.59,1.32,1.32v6.36C74.78,29.37,74.19,29.96,73.45,29.96z" fill="#FF80AB"/>
      <path d="M86.01,29.96h-6.36c-0.73,0-1.32-0.59-1.32-1.32v-6.36c0-0.73,0.59-1.32,1.32-1.32h6.36 c0.73,0,1.32,0.59,1.32,1.32v6.36C87.33,29.37,86.74,29.96,86.01,29.96z" fill="#0288D1"/>
      <path d="M48.35,44.12h-6.36c-0.73,0-1.32-0.59-1.32-1.32v-6.36c0-0.73,0.59-1.32,1.32-1.32h6.36 c0.73,0,1.32,0.59,1.32,1.32v6.36C49.67,43.53,49.08,44.12,48.35,44.12z" fill="#00BFA5"/>
      <path d="M60.9,44.12h-6.36c-0.73,0-1.32-0.59-1.32-1.32v-6.36c0-0.73,0.59-1.32,1.32-1.32h6.36 c0.73,0,1.32,0.59,1.32,1.32v6.36C62.22,43.53,61.63,44.12,60.9,44.12z" fill="#81D4FA"/>
      <path d="M73.45,44.12H67.1c-0.73,0-1.32-0.59-1.32-1.32v-6.36c0-0.73,0.59-1.32,1.32-1.32h6.36 c0.73,0,1.32,0.59,1.32,1.32v6.36C74.78,43.53,74.19,44.12,73.45,44.12z" fill="#FB8C00"/>
      <path d="M86.01,44.12h-6.36c-0.73,0-1.32-0.59-1.32-1.32v-6.36c0-0.73,0.59-1.32,1.32-1.32h6.36 c0.73,0,1.32,0.59,1.32,1.32v6.36C87.33,43.53,86.74,44.12,86.01,44.12z" fill="#EAB56E"/>
      <path d="M48.35,58.28h-6.36c-0.73,0-1.32-0.59-1.32-1.32V50.6c0-0.73,0.59-1.32,1.32-1.32h6.36 c0.73,0,1.32,0.59,1.32,1.32v6.36C49.67,57.69,49.08,58.28,48.35,58.28z" fill="#FB8C00"/>
      <path d="M60.9,58.28h-6.36c-0.73,0-1.32-0.59-1.32-1.32V50.6c0-0.73,0.59-1.32,1.32-1.32h6.36 c0.73,0,1.32,0.59,1.32,1.32v6.36C62.22,57.69,61.63,58.28,60.9,58.28z" fill="#FF80AB"/>
      <path d="M73.45,58.28H67.1c-0.73,0-1.32-0.59-1.32-1.32V50.6c0-0.73,0.59-1.32,1.32-1.32h6.36 c0.73,0,1.32,0.59,1.32,1.32v6.36C74.78,57.69,74.19,58.28,73.45,58.28z" fill="#00BFA5"/>
      <path d="M86.01,58.28h-6.36c-0.73,0-1.32-0.59-1.32-1.32V50.6c0-0.73,0.59-1.32,1.32-1.32h6.36 c0.73,0,1.32,0.59,1.32,1.32v6.36C87.33,57.69,86.74,58.28,86.01,58.28z" fill="#0288D1"/>
      <path d="M48.35,72.44h-6.36c-0.73,0-1.32-0.59-1.32-1.32v-6.36c0-0.73,0.59-1.32,1.32-1.32h6.36 c0.73,0,1.32,0.59,1.32,1.32v6.36C49.67,71.85,49.08,72.44,48.35,72.44z" fill="#0288D1"/>
      <path d="M60.9,72.44h-6.36c-0.73,0-1.32-0.59-1.32-1.32v-6.36c0-0.73,0.59-1.32,1.32-1.32h6.36 c0.73,0,1.32,0.59,1.32,1.32v6.36C62.22,71.85,61.63,72.44,60.9,72.44z" fill="#81D4FA"/>
      <path d="M48.35,114.92h-6.36c-0.73,0-1.32-0.59-1.32-1.32v-6.36c0-0.73,0.59-1.32,1.32-1.32h6.36 c0.73,0,1.32,0.59,1.32,1.32v6.36C49.67,114.32,49.08,114.92,48.35,114.92z" fill="#81D4FA"/>
      <path d="M60.9,114.92h-6.36c-0.73,0-1.32-0.59-1.32-1.32v-6.36c0-0.73,0.59-1.32,1.32-1.32h6.36 c0.73,0,1.32,0.59,1.32,1.32v6.36C62.22,114.32,61.63,114.92,60.9,114.92z" fill="#0288D1"/>
      <path d="M73.45,114.92H67.1c-0.73,0-1.32-0.59-1.32-1.32v-6.36c0-0.73,0.59-1.32,1.32-1.32h6.36 c0.73,0,1.32,0.59,1.32,1.32v6.36C74.78,114.32,74.19,114.92,73.45,114.92z" fill="#00BFA5"/>
      <path d="M86.01,114.92h-6.36c-0.73,0-1.32-0.59-1.32-1.32v-6.36c0-0.73,0.59-1.32,1.32-1.32h6.36 c0.73,0,1.32,0.59,1.32,1.32v6.36C87.33,114.32,86.74,114.92,86.01,114.92z" fill="#FF80AB"/>
    </g>
  </g>
</svg>

<svg viewBox="0 0 128 128" xmlns="http://www.w3.org/2000/svg">
  <defs/>
  <path d="M87.4,124 L40.6,124 C35.9,124 32,120.2 32,115.4 L32,12.6 C32,7.9 35.9,4 40.6,4 L87.4,4 C92.1,4 96,7.8 96,12.6 L96,115.5 C96,120.2 92.1,124 87.4,124 Z" fill="#424242"/>
  <path d="M86.77,120.11 L39.93,120.11 C37.78,120.11 36.04,118.37 36.04,116.22 L36.04,19.65 C36.04,17.51 37.78,15.77 39.92,15.77 L88.07,15.77 C90.22,15.77 91.96,17.51 91.96,19.66 L91.96,115.59 C91.96,116.52 90.56,120.11 86.77,120.11 Z"/>
  <path d="M73.65,11.59 L54.45,11.59 C53.75,11.59 53.25,10.99 53.25,10.39 C53.25,9.79 53.85,9.19 54.45,9.19 L73.55,9.19 C74.25,9.19 74.75,9.79 74.75,10.39 C74.75,10.99 74.25,11.59 73.65,11.59 Z" fill="#212121"/>
  <path d="M87.4,6 C91.04,6 94,8.96 94,12.6 L94,115.5 C94,119.08 91.04,122 87.4,122 L40.6,122 C36.96,122 34,119.04 34,115.4 L34,12.6 C34,9.02 37.02,6 40.6,6 L87.4,6 M87.4,4 L40.6,4 C35.9,4 32,7.9 32,12.6 L32,115.4 C32,120.2 35.9,124 40.6,124 L87.4,124 C92.1,124 96,120.2 96,115.5 L96,12.6 C96,7.8 92.1,4 87.4,4 L87.4,4 Z" fill="#757575"/>
  <path d="M48.35,29.96 L41.99,29.96 C41.26,29.96 40.67,29.37 40.67,28.64 L40.67,22.28 C40.67,21.55 41.26,20.96 41.99,20.96 L48.35,20.96 C49.08,20.96 49.67,21.55 49.67,22.28 L49.67,28.64 C49.67,29.37 49.08,29.96 48.35,29.96 Z" fill="#EAB56E"/>
  <path d="M60.9,29.96 L54.54,29.96 C53.81,29.96 53.22,29.37 53.22,28.64 L53.22,22.28 C53.22,21.55 53.81,20.96 54.54,20.96 L60.9,20.96 C61.63,20.96 62.22,21.55 62.22,22.28 L62.22,28.64 C62.22,29.37 61.63,29.96 60.9,29.96 Z" fill="#FB8C00"/>
  <path d="M73.45,29.96 L67.1,29.96 C66.37,29.96 65.78,29.37 65.78,28.64 L65.78,22.28 C65.78,21.55 66.37,20.96 67.1,20.96 L73.46,20.96 C74.19,20.96 74.78,21.55 74.78,22.28 L74.78,28.64 C74.78,29.37 74.19,29.96 73.45,29.96 Z" fill="#FF80AB"/>
  <path d="M86.01,29.96 L79.65,29.96 C78.92,29.96 78.33,29.37 78.33,28.64 L78.33,22.28 C78.33,21.55 78.92,20.96 79.65,20.96 L86.01,20.96 C86.74,20.96 87.33,21.55 87.33,22.28 L87.33,28.64 C87.33,29.37 86.74,29.96 86.01,29.96 Z" fill="#0288D1"/>
  <path d="M48.35,44.12 L41.99,44.12 C41.26,44.12 40.67,43.53 40.67,42.8 L40.67,36.44 C40.67,35.71 41.26,35.12 41.99,35.12 L48.35,35.12 C49.08,35.12 49.67,35.71 49.67,36.44 L49.67,42.8 C49.67,43.53 49.08,44.12 48.35,44.12 Z" fill="#00BFA5"/>
  <path d="M60.9,44.12 L54.54,44.12 C53.81,44.12 53.22,43.53 53.22,42.8 L53.22,36.44 C53.22,35.71 53.81,35.12 54.54,35.12 L60.9,35.12 C61.63,35.12 62.22,35.71 62.22,36.44 L62.22,42.8 C62.22,43.53 61.63,44.12 60.9,44.12 Z" fill="#81D4FA"/>
  <path d="M73.45,44.12 L67.1,44.12 C66.37,44.12 65.78,43.53 65.78,42.8 L65.78,36.44 C65.78,35.71 66.37,35.12 67.1,35.12 L73.46,35.12 C74.19,35.12 74.78,35.71 74.78,36.44 L74.78,42.8 C74.78,43.53 74.19,44.12 73.45,44.12 Z" fill="#FB8C00"/>
  <path d="M86.01,44.12 L79.65,44.12 C78.92,44.12 78.33,43.53 78.33,42.8 L78.33,36.44 C78.33,35.71 78.92,35.12 79.65,35.12 L86.01,35.12 C86.74,35.12 87.33,35.71 87.33,36.44 L87.33,42.8 C87.33,43.53 86.74,44.12 86.01,44.12 Z" fill="#EAB56E"/>
  <path d="M48.35,58.28 L41.99,58.28 C41.26,58.28 40.67,57.69 40.67,56.96 L40.67,50.6 C40.67,49.87 41.26,49.28 41.99,49.28 L48.35,49.28 C49.08,49.28 49.67,49.87 49.67,50.6 L49.67,56.96 C49.67,57.69 49.08,58.28 48.35,58.28 Z" fill="#FB8C00"/>
  <path d="M60.9,58.28 L54.54,58.28 C53.81,58.28 53.22,57.69 53.22,56.96 L53.22,50.6 C53.22,49.87 53.81,49.28 54.54,49.28 L60.9,49.28 C61.63,49.28 62.22,49.87 62.22,50.6 L62.22,56.96 C62.22,57.69 61.63,58.28 60.9,58.28 Z" fill="#FF80AB"/>
  <path d="M73.45,58.28 L67.1,58.28 C66.37,58.28 65.78,57.69 65.78,56.96 L65.78,50.6 C65.78,49.87 66.37,49.28 67.1,49.28 L73.46,49.28 C74.19,49.28 74.78,49.87 74.78,50.6 L74.78,56.96 C74.78,57.69 74.19,58.28 73.45,58.28 Z" fill="#00BFA5"/>
  <path d="M86.01,58.28 L79.65,58.28 C78.92,58.28 78.33,57.69 78.33,56.96 L78.33,50.6 C78.33,49.87 78.92,49.28 79.65,49.28 L86.01,49.28 C86.74,49.28 87.33,49.87 87.33,50.6 L87.33,56.96 C87.33,57.69 86.74,58.28 86.01,58.28 Z" fill="#0288D1"/>
  <path d="M48.35,72.44 L41.99,72.44 C41.26,72.44 40.67,71.85 40.67,71.12 L40.67,64.76 C40.67,64.03 41.26,63.44 41.99,63.44 L48.35,63.44 C49.08,63.44 49.67,64.03 49.67,64.76 L49.67,71.12 C49.67,71.85 49.08,72.44 48.35,72.44 Z" fill="#0288D1"/>
  <path d="M60.9,72.44 L54.54,72.44 C53.81,72.44 53.22,71.85 53.22,71.12 L53.22,64.76 C53.22,64.03 53.81,63.44 54.54,63.44 L60.9,63.44 C61.63,63.44 62.22,64.03 62.22,64.76 L62.22,71.12 C62.22,71.85 61.63,72.44 60.9,72.44 Z" fill="#81D4FA"/>
  <path d="M48.35,114.92 L41.99,114.92 C41.26,114.92 40.67,114.33 40.67,113.6 L40.67,107.24 C40.67,106.51 41.26,105.92 41.99,105.92 L48.35,105.92 C49.08,105.92 49.67,106.51 49.67,107.24 L49.67,113.6 C49.67,114.32 49.08,114.92 48.35,114.92 Z" fill="#81D4FA"/>
  <path d="M60.9,114.92 L54.54,114.92 C53.81,114.92 53.22,114.33 53.22,113.6 L53.22,107.24 C53.22,106.51 53.81,105.92 54.54,105.92 L60.9,105.92 C61.63,105.92 62.22,106.51 62.22,107.24 L62.22,113.6 C62.22,114.32 61.63,114.92 60.9,114.92 Z" fill="#0288D1"/>
  <path d="M73.45,114.92 L67.1,114.92 C66.37,114.92 65.78,114.33 65.78,113.6 L65.78,107.24 C65.78,106.51 66.37,105.92 67.1,105.92 L73.46,105.92 C74.19,105.92 74.78,106.51 74.78,107.24 L74.78,113.6 C74.78,114.32 74.19,114.92 73.45,114.92 Z" fill="#00BFA5"/>
  <path d="M86.01,114.92 L79.65,114.92 C78.92,114.92 78.33,114.33 78.33,113.6 L78.33,107.24 C78.33,106.51 78.92,105.92 79.65,105.92 L86.01,105.92 C86.74,105.92 87.33,106.51 87.33,107.24 L87.33,113.6 C87.33,114.32 86.74,114.92 86.01,114.92 Z" fill="#FF80AB"/>
</svg>
